svg/fluentui-system-icons/ic_fluent_code_text_16_regular.svg

<svg width="16" height="16" viewBox="0 0 16 16" fill="none" xmlns="http://www.w3.org/2000/svg">
<path d="M1.5 3C1.22386 3 1 3.22386 1 3.5C1 3.77614 1.22386 4 1.5 4H7C7.27614 4 7.5 3.77614 7.5 3.5C7.5 3.22386 7.27614 3 7 3H1.5ZM4.5 6C4.22386 6 4 6.22386 4 6.5C4 6.77614 4.22386 7 4.5 7H8.5C8.77614 7 9 6.77614 9 6.5C9 6.22386 8.77614 6 8.5 6H4.5ZM3 9.5C3 9.22386 3.22386 9 3.5 9H11.5C11.7761 9 12 9.22386 12 9.5C12 9.77614 11.7761 10 11.5 10H3.5C3.22386 10 3 9.77614 3 9.5ZM1.5 12C1.22386 12 1 12.2239 1 12.5C1 12.7761 1.22386 13 1.5 13H9C9.27614 13 9.5 12.7761 9.5 12.5C9.5 12.2239 9.27614 12 9 12H1.5ZM10.5 6.5C10.5 6.22386 10.7239 6 11 6H13.5C13.7761 6 14 6.22386 14 6.5C14 6.77614 13.7761 7 13.5 7H11C10.7239 7 10.5 6.77614 10.5 6.5ZM9.5 3C9.22386 3 9 3.22386 9 3.5C9 3.77614 9.22386 4 9.5 4H14.5C14.7761 4 15 3.77614 15 3.5C15 3.22386 14.7761 3 14.5 3H9.5Z" fill="#212121"/>
</svg>

<svg xmlns="http://www.w3.org/2000/svg" width="16" height="16"><path d="M1.5 3a.5.5 0 0 0 0 1H7a.5.5 0 0 0 0-1H1.5Zm3 3a.5.5 0 0 0 0 1h4a.5.5 0 0 0 0-1h-4ZM3 9.5a.5.5 0 0 1 .5-.5h8a.5.5 0 0 1 0 1h-8a.5.5 0 0 1-.5-.5ZM1.5 12a.5.5 0 0 0 0 1H9a.5.5 0 0 0 0-1H1.5Zm9-5.5A.5.5 0 0 1 11 6h2.5a.5.5 0 0 1 0 1H11a.5.5 0 0 1-.5-.5ZM9.5 3a.5.5 0 0 0 0 1h5a.5.5 0 0 0 0-1h-5Z"/></svg>
